X: 9
T: Gardiner Lads
C: by Rob[indecipherable]
N: Attr. Robert Whinham (1814-1893) in the William Green MS.
R: reel
M: C|
L: 1/8
Z: 2010 John Chambers <jc:trillian.mit.edu>
B: 19th century tune book collected by W.A. Cocks.
F: http://www.asaplive.com/archive/browse_by_collection.asp
N: The asaplive.com web site is complex, and links to its files don't usually work.
K: A
((3EFG) !Segno!|\
ABcA GAFG | EFDE CDB,C | A,CEA FBdc | BEFG ABcd |
(3eag (3fed (3cfe (3dcB | (3AcB (3AGF EFGA | BcdB GEFG | AcBG A2 :|
ze |\
c/B/AaA gAfA | eAe'A c'AaA | (3fga (3gfe (3def (3edc | (3Bcd (3ABc (3GAB (3EFG |
ABcA GAFG | EFDE CDB,C | A,CEA FdBA | GEFG A2 H||
ed |\
(c/B/)AaA gAfA | eAe'A c'AaA | (3fga (3gfe (3def (3edc | (3Bcd (3ABc (3GAB (3EFG |
ABcA GAFG | efde cdBc | (3Ace (3cea | (3ec'b (3aec | (3Bcd (3EFG AcBG !Segno!|]


%%sep 5 1 500

